X: 1178
T: The Broken Pledge
M:C|
L:1/8
R:Reel
B:ONeill's 1178
N:Collected by McFadden
Z:Transcribed by Trish O'Neil
K:D
d | dcAG AD (3DDD | cAGF ECCE | DEFG Addc | ABGB Adfe |
dcAG A2(dB) | (3cBA GF (EC)CE) | DEFG Addc | (3ABA GE EDD2 ||
d | {e}dcAGA2(de) | fefd ecAB | {d}cAGE GAcd | (3efg df ecAc |
dcAG A2(de) | fefd ecAG | (~FE)FG Addc | AcGE {F}EDD2 |]


